X:1
T: Will ye go and marry Ketty
C:
R:Strathspey
Q: 128
K:G
M:4/4
L:1/16
|:c2|BG3 G3A B3A Bd3|BG3 G3A Bcd2 A3c|BG3 G3A B3A Bd3|e2fg d3g Bg3 A2c2|
BG3 G3A B3A Bd3|BG3 G3A Bcd2 A3c|BG3 G3A B3A Bd3|e2fg d3g Bg3 A2c2|
Bd3 d2ef g3d e3d|Bd3 d2ef g3B A3c|Bd3 d2ef g3d e2d2|ca3 Bg3 Bg3 A2c2|
Bd3 d2ef g3d e3d|Bd3 d2ef g3B A3c|Bd3 d2ef g3d e2d2|ca3 Bg3 Bg3 A2:|
